X:1
T:[ID 1-30]
T:[ID 1-30]
T:Bezeichnung standardisiert: De Marsch van de Graaf van Regteren; March In anderer Quelle: De Marsch van de Graaf van Regteren - Hs. Volksmelodie\"en 1755-1773 (Anm. S. Wascher);
T:Urheber unbekannt Erstbeleg: 1755-1767 (Datum in der schriftlichen Quelle) Datum in der hier transkribierten schriftlichen Quelle: vermutlich vor 1767
C:Urheber unbekannt
C:Erstbeleg: 1755-1767 (Datum in der schriftlichen Quelle)
C:Datum in der hier transkribierten schriftlichen Quelle: vermutlich vor 1767
L:1/8
M:4/4
K:D
V:1 treble 
V:1
 A2 | d2 dd dfeg | fgab a2 (3gab | a2 gf g>ba>g | f2 ef d2 f2 | eAAA A2 e2 | dEEE E2 d2 | %7
 cdea c2 B>A | A2 (3cBA (3dcB e>^G | A6 :: A2 | d2 dd def=c | B2 AB G2 B2 | e2 ee ef"^\201"gd | %14
 ^c2 Bc A2 a2 | a3 b/g/ g3 a/f/ | f3 g/e/ e2 A2 | (3Bcd (3efg f2 e2 | d2 (3fed (3gfe a^c | %19
"^O)" d2 (3fed (3gfe a^c |"^O)" d2 (3fed (3gfe a^c | d6 :| %22

